Obsidian-SemiLight/actions/22s/xml-attribute-delete.svg

<svg viewBox="0 0 22 22" xmlns="http://www.w3.org/2000/svg"><path d="m9 3-6 2 2 6 8 4v-.125-1.875h1 2.5l2.5-5zm-6 2v6l8 8 2.705078-2.705078-9.705078-5.294922zm3.5 0c.831 0 1.5.669 1.5 1.5s-.669 1.5-1.5 1.5-1.5-.669-1.5-1.5.669-1.5 1.5-1.5z" fill="#4d4d4d"/><path d="m14.833984 14-.833984.833984 1.666016 1.666016-1.666016 1.666016.833984.833984 1.666016-1.666016 1.666016 1.666016.833984-.833984-1.666016-1.666016 1.666016-1.666016-.833984-.833984-1.666016 1.666016z" fill="#da4453"/></svg>

<svg xmlns="http://www.w3.org/2000/svg" viewBox="0 0 22 22">
  <defs id="defs3051">
    <style type="text/css" id="current-color-scheme">
      .ColorScheme-Text {
        color:#4d4d4d;
      }
      </style>
  </defs>
 <path 
     style="fill:currentColor;fill-opacity:1;stroke:none" 
     d="M 9 3 L 3 5 L 5 11 L 13 15 L 13 14.875 L 13 13 L 14 13 L 16.5 13 L 19 8 L 9 3 z M 3 5 L 3 11 L 11 19 L 13.705078 16.294922 L 4 11 L 3 5 z M 6.5 5 C 7.331 5 8 5.669 8 6.5 C 8 7.331 7.331 8 6.5 8 C 5.669 8 5 7.331 5 6.5 C 5 5.669 5.669 5 6.5 5 z "
     class="ColorScheme-Text"
     />
 <path 
     style="fill:#da4453;fill-opacity:1;stroke:none"      
     d="M 14.833984 14 L 14 14.833984 L 15.666016 16.5 L 14 18.166016 L 14.833984 19 L 16.5 17.333984 L 18.166016 19 L 19 18.166016 L 17.333984 16.5 L 19 14.833984 L 18.166016 14 L 16.5 15.666016 L 14.833984 14 z "
     />
</svg>
